wordpress/wp-content/themes/bluearrow-2017/assets/images/header-icon-news.svg

<?xml version="1.0" encoding="UTF-8"?>
<svg width="30px" height="30px" viewBox="0 0 30 30" version="1.1" xmlns="http://www.w3.org/2000/svg" xmlns:xlink="http://www.w3.org/1999/xlink">
    <!-- Generator: Sketch 41.2 (35397) - http://www.bohemiancoding.com/sketch -->
    <title>header-icon-news</title>
    <desc>Created with Sketch.</desc>
    <defs></defs>
    <g id="export" stroke="none" stroke-width="1" fill="none" fill-rule="evenodd">
        <g id="header-icon-news" fill="#FFFFFF">
            <path d="M15.0718242,29.2014174 C8.34790126,29.1873221 2.56946231,24.4273439 1.26801802,17.8305582 C-0.0334262661,11.2337725 3.50427626,4.63586306 9.71904789,2.06916237 C15.9338195,-0.49753831 23.0962793,1.68120413 26.829068,7.27384458 C30.5618567,12.866485 29.8262534,20.3167626 25.0718242,25.0714174 C22.4266121,27.732512 18.8239183,29.2204245 15.0718242,29.2014174 L15.0718242,29.2014174 Z M7.32182423,24.5714174 C10.9773438,27.5682285 16.0317263,28.1923095 20.306397,26.1746649 C24.5810678,24.1570203 27.3118971,19.8583193 27.3218242,15.1314174 L12.6318242,21.7414174 L16.8118242,16.1314174 L13.2518242,16.1914174 L7.32182423,24.5714174 Z M4.70182423,21.5114174 C5.08189517,22.1293685 5.51699556,22.7117336 6.00182423,23.2514174 L11.0018242,16.2514174 L8.44182423,16.2514174 L4.70182423,21.5114174 Z M3.62182423,10.8914174 C2.60443963,13.7132672 2.64708578,16.808667 3.74182423,19.6014174 L6.74182423,15.2914174 L3.62182423,10.8914174 Z M19.9018242,15.1914174 L18.5218242,17.0414174 L22.8618242,15.0414174 L18.3818242,13.0414174 L19.9018242,15.1914174 Z M27.3718242,15.0114174 C27.33802,10.2365323 24.5327559,5.91645677 20.1845758,3.94313455 C15.8363957,1.96981232 10.7378566,2.7029273 7.12182423,5.82141743 L13.2318242,14.3014174 L16.8818242,14.2414174 L12.7018242,8.57141743 L27.3718242,15.0114174 Z M8.40182423,14.3814174 L10.8818242,14.3814174 L5.70182423,7.18141743 C5.23730809,7.73029961 4.82235145,8.31927033 4.46182423,8.94141743 L8.40182423,14.3814174 Z" id="Shape"></path>
        </g>
    </g>
</svg>

<svg width="30" height="30" viewBox="0 0 30 30" xmlns="http://www.w3.org/2000/svg"><title>header-icon-news</title><path d="M15.072 29.201a14.1 14.1 0 1 1 10-4.13 14 14 0 0 1-10 4.13zm-7.75-4.63a12.24 12.24 0 0 0 20-9.44l-14.69 6.61 4.18-5.61-3.56.06-5.93 8.38zm-2.62-3.06c.38.618.815 1.2 1.3 1.74l5-7h-2.56l-3.74 5.26zm-1.08-10.62a12.37 12.37 0 0 0 .12 8.71l3-4.31-3.12-4.4zm16.28 4.3l-1.38 1.85 4.34-2-4.48-2 1.52 2.15zm7.47-.18a12.25 12.25 0 0 0-20.25-9.19l6.11 8.48 3.65-.06-4.18-5.67 14.67 6.44zm-18.97-.63h2.48l-5.18-7.2a12.17 12.17 0 0 0-1.24 1.76l3.94 5.44z" fill="#FFF" fill-rule="evenodd"/></svg>
